assets/inline_images/observability.svg

<svg xmlns="http://www.w3.org/2000/svg" id="Group_4866" width="72" height="66.013" viewBox="0 0 72 66.013">
    <defs>
        <clipPath id="clip-path">
            <path id="Rectangle_37" fill="none" d="M0 0H72V66.013H0z"/>
        </clipPath>
        <style>
            .cls-3{fill:#7dc6f2}
        </style>
    </defs>
    <g id="Group_228" clip-path="url(#clip-path)">
        <path id="Path_235" d="M69.2 60.328h-6.6V28.269a1.876 1.876 0 0 0-1.895-1.895h-6.137a1.876 1.876 0 0 0-1.895 1.895v32.059h-6.366v-22.66a1.876 1.876 0 0 0-1.895-1.895h-6.138a1.876 1.876 0 0 0-1.895 1.895v22.66h-6.366V45.7a1.877 1.877 0 0 0-1.895-1.895h-6.139a1.877 1.877 0 0 0-1.895 1.895v14.628H5.608V52.75h5.229a2.8 2.8 0 1 0 0-5.608H5.608v-7.579h5.229a2.8 2.8 0 0 0 0-5.609H5.608v-7.579h5.229a2.8 2.8 0 0 0 0-5.608H5.608v-7.5h5.229a2.8 2.8 0 0 0 0-5.608H5.608V2.8A2.848 2.848 0 0 0 2.8 0 2.848 2.848 0 0 0 0 2.8v60.4A2.847 2.847 0 0 0 2.8 66h66.4a2.842 2.842 0 0 0 0-5.684" class="cls-3"/>
        <path id="Path_236" d="M32.4 34.72l6.821-7.882a12.315 12.315 0 0 0 6.67 1.364 12.69 12.69 0 1 0-13.564-11.747 12.267 12.267 0 0 0 2.349 6.366L27.855 30.7a3.028 3.028 0 0 0 .3 4.32 2.943 2.943 0 0 0 4.244-.3m12.13-25.769A6.609 6.609 0 1 1 38.39 16a6.617 6.617 0 0 1 6.139-7.048" class="cls-3" transform="translate(-6.559 -.69)"/>
    </g>
</svg>

<svg xmlns="http://www.w3.org/2000/svg" xmlns:xlink="http://www.w3.org/1999/xlink" width="72" height="66.013" viewBox="0 0 72 66.013">
    <defs>
        <style>.a{fill:none;}</style>
    </defs>
    <g class="b" transform="translate(0 0)">
        <path class="c" d="M69.2,60.328H62.6V28.269a1.876,1.876,0,0,0-1.895-1.895H54.568a1.876,1.876,0,0,0-1.895,1.895V60.328H46.307V37.668a1.876,1.876,0,0,0-1.895-1.895H38.274a1.876,1.876,0,0,0-1.895,1.895v22.66H30.013V45.7a1.877,1.877,0,0,0-1.895-1.895H21.979A1.877,1.877,0,0,0,20.084,45.7V60.328H5.608V52.75h5.229a2.8,2.8,0,1,0,0-5.608H5.608V39.563h5.229a2.8,2.8,0,0,0,0-5.609H5.608V26.375h5.229a2.8,2.8,0,0,0,0-5.608H5.608v-7.5h5.229a2.8,2.8,0,0,0,0-5.608H5.608V2.8A2.848,2.848,0,0,0,2.8,0,2.848,2.848,0,0,0,0,2.8v60.4a2.847,2.847,0,0,0,2.8,2.8H69.2a2.842,2.842,0,0,0,0-5.684" transform="translate(0 0)"/>
        <path class="c" d="M32.4,34.72l6.821-7.882a12.315,12.315,0,0,0,6.67,1.364A12.69,12.69,0,1,0,32.327,16.455a12.267,12.267,0,0,0,2.349,6.366L27.855,30.7a3.028,3.028,0,0,0,.3,4.32,2.943,2.943,0,0,0,4.244-.3M44.529,8.951A6.609,6.609,0,1,1,38.39,16a6.617,6.617,0,0,1,6.139-7.048" transform="translate(-6.559 -0.69)"/>
    </g>
</svg>
